!!!COM: Prokofiev, Sergey (Sergeyevich)
!!!OTL: Piano Sonata No. 7 in B-flat Major, op. 83
!!!OMV: Movement 3
!!!example: 582
!!!work: Pro-35
!!!OMD-full: Precipitato
!!!OMD: Precipitato
**kern	**kern	**dynam
*grp:A	*grp:B	*grp:B
*part1	*part1	*part1
*staff2	*staff1	*
*I"Piano	*	*
*I'Pno.	*	*
*ICklav	*ICklav	*
*Ipiano	*Ipiano	*
*clefF4	*clefF4	*
*k[b-e-]	*k[b-e-]	*
*B-:	*B-:	*
*M7/8	*M7/8	*
=1	=1	=1
!	!LO:TX:t=[[eighth]=368]	!
!	!	!
8ryy	4D 4F 4B-	mp
8ryy	.	.
4ryy	8r	.
!	!	!
.	4D 4F 4B-	.
8ryy	.	.
4ryy	8BB-L 8D 8F	.
.	8BB-J 8D 8F	.
=2	=2	=2
8ryy	4BB- 4D 4F	.
8ryy	.	.
8ryy	4BB- 4D 4F	.
8ryy	.	.
8ryy	8BB- 8D 8F	.
4ryy	8BB-L 8E- 8G	.
.	8CJ 8E- 8G	.
=3	=3	=3
8ryy	4C 4F 4A	.
8ryy	.	.
4ryy	8r	.
.	4D 4F 4B-	.
8ryy	.	.
4ryy	8DL 8F 8B-	.
.	8CJ 8E- 8B-	.
=4	=4	=4
8ryy	4F 4G 4B-	.
8ryy	.	.
8ryy	4G-X 4B- 4c	.
8ryy	.	.
8ryy	8F 8A 8c	.
4ryy	8EnL 8G#X 8c	.
.	8FJ 8A 8c	.
=5	=5	=5
8ryy	4G-X 4B- 4c	.
8ryy	.	.
4ryy	8r	.
.	4Gn 4B- 4e-	.
8ryy	.	.
4ryy	8GL 8B- 8d	.
.	8A-XJ 8B- 8c#X	.
=6	=6	=6
8ryy	4G 4B- 4d	.
8ryy	.	.
*	*clefG2	*
8ryy	4A-X 4e- 4g	.
8ryy	.	.
8ryy	8An 8e- 8g	.
4ryy	8B-L 8e- 8g	.
.	8BnJ 8e- 8a-X	.
=7	=7	=7
8ryy	4c 4e- 4an	.
8ryy	.	.
4ryy	8r	.
.	4B- 4e- 4g	.
8ryy	.	.
4ryy	8AL 8e- 8g	.
.	8A-XJ 8e- 8g	.
=8	=8	=8
8ryy	4G 4e- 4g	.
8ryy	.	.
8ryy	4e- 4cc 4dd	.
8ryy	.	.
8ryy	8c-X 8e- 8g	.
4ryy	8B-L 8e- 8g	.
.	8BnJ 8e- 8a-X	.
=9	=9	=9
8ryy	4c 4e- 4an	.
8ryy	.	.
4ryy	8r	.
.	4B- 4e- 4g	.
8ryy	.	.
4ryy	8AL 8e- 8g	.
.	8A-XJ 8e- 8g	.
=10	=10	=10
8ryy	4G 4e- 4g	.
8ryy	.	.
8ryy	4e- 4cc 4dd	.
8ryy	.	.
8ryy	8c-X 8e- 8g	.
4ryy	8B-L 8e- 8g	.
.	8A-J 8e- 8a-X	.
=11	=11	=11
!	!	!
8ryy	4G 4An 4e- 4an	mf
8ryy	.	.
4ryy	8r	.
.	4G 4A 4e- 4a	.
8ryy	.	.
4ryy	8GL 8Ani 8e- 8a-X	.
.	8GJ 8A 8e- 8g	.
=12	=12	=12
8ryy	4G 4A 4d#X 4f#X	.
8ryy	.	.
8ryy	4G 4A 4dn 4f#	.
8ryy	.	.
8ryy	8G 8A 8d 8f#	.
4ryy	8GL 8A 8d 8g	.
.	8GniJ 8A 8d 8g#X	.
=13	=13	=13
8ryy	4G 4A 4e- 4a	.
8ryy	.	.
4ryy	8r	.
.	4c#X 4a 4ee-	.
8ryy	.	.
4ryy	8BnL 8d#X 8f#X	.
.	8B-XJ 8d# 8f#	.
=14	=14	=14
8ryy	4G 4A 4d#X 4f#X	.
8ryy	.	.
8ryy	4G 4A 4dn 4f#	.
8ryy	.	.
8ryy	8G 8A 8d 8f#	.
4ryy	8GL 8A 8d 8g	.
.	8GnJi 8A 8d 8g#X	.
=	=	=
*-	*-	*-
!!!system-decoration: [({(s1,s2)})]
!!!RDF**kern: i = editorial accidental, paren
!!!CDT: 1891/04/23-1953/03/05
!!!CBL: Sontsovka, Ukraine
!!!CDL: Moscow, Russia
!!!CNT: Russian
!!!AGN: Instrumental; Keyboard
!!!MCN:
!!!MDT: 1943/01/18
!!!MGN:
!!!MLC: Moscow, Russia
!!!MPD: 1943
!!!MPN: Richter, Sviatoslav
!!!ODT: 1942
!!!PDT: 1943
!!!excerpt-start-measure: 1
!!!excerpt-end-measure: 14
!!!excerpt-start-time: 0:00
!!!excerpt-end-time: 0:16
!!!excerpt-duration-sec: 16
!!!excerpt-time-signature: 7/8
!!!excerpt-tempo-beat: {eighth}
!!!excerpt-tempo-rate: {368}
!!!excerpt-meter-type: odd
!!!excerpt-beat-group: G3
!!!excerpt-beat-subgroup: G3,G2
!!!experiment: 1
!!!EEV: 2020/07/28
!!!ONB: Converted from MusicXML on 2020/07/28
